X:1
T:Highwood, 11.10.11.10
T:Highwood, 11.10.11.10
T:Richard Runciman Terry (1865-1938)
T:Public Domain Courtesy of the Cyber Hymnal™
C:Richard Runciman Terry (1865-1938)
Z:Public Domain
Z:Courtesy of the Cyber Hymnal™
%%score ( 1 2 ) ( 3 4 )
L:1/8
M:none
K:Bb
V:1 treble 
V:2 treble 
V:3 bass 
V:4 bass 
V:1
 [DF]4 [DG]2 [Dd]2 | c6 [EA]2 | [DB]2 [DG]2 [CF]2 [A,D]2 | B,4 C4 | [B,D]4 [C=E]2 [CG]2 | %5
 c6 [DF]2 | [DB]2 [FA]2 [DG]2 F2 | G8 | z2 [EG]2 [EA]2 x2 | [DB]2 [^FA]2 G2 [DB]2 | d6 z2 c2 | %11
 F4 [DB-]4 x2 | B2 G2 [CF]2 [Fc]2 | [FB]2 [DF]2 [CE]2 [B,D]2 | C6 z2 D2 | [B,D]8 |] %16
V:2
 x8 | (E2 G2 F2) x2 | x8 | B,4 (B,2 A,2) | x8 | (C2 =E2 F2) x2 | x6 F2 | (F2 =E2 D2 C2) | %8
 (G4 C)D x2 | x4 G2 x2 | F4 F4 x2 | F2 E2 x6 | E4 x4 | x8 | B,4 A,4 x2 | x8 |] %16
V:3
 (B,2 A,2) [B,,G,]2 [B,,F,]2 | (G,2 B,2 A,2) [B,,G,]2 | [B,,F,]2 [B,,F,]2 [A,,F,]2 [F,,F,]2 | %3
 E,2 D,2 [F,,F,]4 | (F,2 B,2) [B,,G,]2 [B,,=E,]2 | (=E,2 G,2 F,2) [D,A,]2 | %6
 [G,,B,]2 [A,,C]2 [B,,B,]2 [D,A,]2 | (C2 G,2 F,2 =E,2) | (E,3 F,) [C,G,]2 [C,C]2 | %9
 [G,B,]2 [A,C]2 [B,D]2 [G,B,]2 | (B,2 G,2) [E,A,]4 x2 | B,6 z2 _A,2 | G,2 B,2 [E,A,]2 (G,A,) | %13
 [D,B,]2 [B,,_A,]2 [C,G,]2 [D,F,]2 | G,4 [F,,F,]4 x2 | [B,,F,]8 |] %16
V:4
 B,,4 x4 | B,,6 x2 | x8 | G,,4 x4 | B,,4 x4 | A,,6 x2 | x8 | C,8 | C,4 x4 | x8 | F,4 x6 | %11
 (D,2 C,2) B,,4 x2 | E,4 E,2 x2 | x8 | (E,2 C,2) x6 | x8 |] %16

